X: 16199
T: Green Ship, The
R: reel
M: 4/4
K: Eminor
dc|:"Em"B2 e2 fgfe|"Em"B2 e2 g4|"G"B2 Bc "Bm7"d2 d2|"C"cBce "D"d4|
"Em"B2 e2 fgfe|"Em"B2 e2 g4|"Em"gbag "D"fagf|"Em"g2 e2 e2 dc:|
|:"G"B2 G2 G3A|"G"B2 G2 BdcB|"Am"c2 A2 A3B|"Am"c2 A2 cedc|
"G"B2 G2 G3A|"G"B2 d2 g4|"Em"gbag "D"fagf|"Em"g2 e2 e4:|

